X:1
T:Gynge Dantzen
R:Vals
Z:Patrik Mnsson, 2008-11-08
O:Ginge, Skne
S:Stig N 2002-03-13
N:Melodin finns ursprungligen upptecknad i kyrkoherde Pehr Lovens avhandling De Gothungia (Om Ginge) som utgavs 1745. Dr omnmns den tillsammans med tv liknande danser, Tredantzen och Elfvaredansen. Den frsta utfres p tv stt, antingen fres en lng rad av dansande fram och tillbaka i kretsar av sina ledare och sndas drefter liksom under ett ok, eller utfr par av dansande danssteg som ej r mycket olika de danser som fransmnnen kalla "menuett".
N:(Klla: "Ginge Musickanter. Det spelar en ging", 2002, ISBN 91-631-3024-6)
M:3/4
L:1/8
K:C
|: "Andante" d2 g2 ^f2 | g4 g2 | a2 d2 ^f2 | g4 g2 | a2 d2 ^f2 |
g4 g2 | e2 f2 g2 | e2 d2 c2 | e2 f2 g2 | e2 d2 c2 |
d2 G2 A2 | c4 c2 | d2 G2 B2 | c6 :: "Presto" dg fg fg |
g2 g2 g2 | ad gd fd | g2 g2 g2 | e2 ef g2 |
e2 ed c2 | e2 ef g2 | e2 ed c2 | dG AG AG |
c4 c2 | dG AG AG | c6 :|
